X:1
T:The Happy Wanderer
M:4/4
L:1/4
K:G
 d| d d d3/2 c/2| c B B3/2 B/2| B d d B| c3 d| d f f3/2 f/2| g d d3/2 d/2|\
 e c B A| G3 d3/4 d/4| f3 d3/4 d/4| g3 d3/4 d/4| a3 d3/4 d/4| b/2a/2 g/2f/2 g/2f/2 e/2d/2|\
 f3 d3/4 d/4| g3 d| e c B A| G3||
